X:1
T:Vallejo, 76.76 D
T:Vallejo, 76.76 D
T:Ira David Sankey, 1894
T:Public Domain Courtesy of the Cyber Hymnal™
C:Ira David Sankey, 1894
Z:Public Domain
Z:Courtesy of the Cyber Hymnal™
%%score ( 1 2 ) ( 3 4 )
L:1/8
Q:1/4=105
M:6/8
K:F
V:1 treble 
V:2 treble 
V:3 bass 
V:4 bass 
V:1
 [Fc] | [Fc]2 [FB] [FA]2 [Fd] | [Fc]3 [FA]2 [FA] | [FA]2 [EG] C2 [GB] | [FA]3- [FA]2 [FA] | %5
 [EG]2 [EG] [FA]2 [F=B] | [Ec]3 [EG]2 [EG] | [FG]2 [FG] [FA]2 [F=B] | [Ec]3- [Ec]2 [Ec] | %9
 [Fc]2 [Fc] [^Fd]2 [DA] | [DB]3 [DB]2 [EB] | [EB]2 [EB] [Ec]2 [EG] | [FA]3- [FA]2 [EG] | %13
 F2 [FA] [Fc]2 [Ff] | [Ff]3 [Fd]2 [GB] | [FA]2 [Fc] [EB]2 [CE] | [CF]3- [CF]2 |] %17
V:2
 x | x6 | x6 | x3 C2 x | x6 | x6 | x6 | x6 | x6 | x6 | x6 | x6 | x6 | F2 x4 | x6 | x6 | x5 |] %17
V:3
 [F,A,] | [F,A,]2 [F,D] [F,C]2 [F,B,] | [F,A,]3 [F,C]2 [F,C] | [C,C]2 [C,B,] [E,G,]2 [C,C] | %4
 [F,C]3- [F,C]2 [F,C] | [C,C]2 [C,C] [F,C]2 [D,G,] | [C,G,]3 [C,C]2 [C,C] | %7
 [G,=B,]2 [G,B,] [G,D]2 G, | [C,G,]3- [C,G,]2 [C,B,] | [F,A,]2 [F,A,] [D,A,]2 [D,^F,] | %10
 G,3 G,2 [C,C] | [C,C]2 [C,C] [C,G,]2 [C,C] | [F,C]3- [F,C]2 [F,B,] | [F,A,]2 [F,C] [F,A,]2 [A,C] | %14
 [B,D]3 B,2 [B,,D] | [C,C]2 [C,A,] [C,G,]2 [C,B,] | [F,A,]3- [F,A,]2 |] %17
V:4
 x | x6 | x6 | x6 | x6 | x6 | x6 | x5 G, | x6 | x6 | G,3 G,2 x | x6 | x6 | x6 | x3 B,2 x | x6 | %16
 x5 |] %17

